X:1
T:Title
%%score { ( 1 3 5 ) | ( 2 4 ) }
L:1/8
Q:1/4=106
M:4/4
K:Ab
V:1 treble nm="Grand Piano"
V:3 treble 
V:5 treble 
V:2 bass 
V:4 bass 
V:1
 [CE]>[CE] [Ec]>[Ec] [DB]>[CA] [DG]>[DF] | [CF]2 [CE]2 [CE]4 | z4 [DB]4 | [CA]>B [CA]>B [Ec]4 | %4
w: Chas.~H.~Gabriel * * * * * * *||||
 [A,CE]>[CE] [Ec]>[Ec] [DB]>[CA] [DG]>[DF] | [CF]2 [CE]2 [CE]4 | E>G B>d c2 B2 | [CA]6 z2 | e6 z2 | %9
w: |||||
 B4 z4 | G2 d2 z2 d2 | [Ec]>[DB] [CA]>[DF] [CE]4 | e6 z2 | B4 z4 | E>G B>d c2 B2 | [CA]6 z2 |] %16
w: |||||||
V:2
 [A,,A,]>[A,,A,] [A,,A,]>[A,,A,] [A,,A,]>[A,,E,] [A,,F,]>[A,,G,] | [A,,A,]2 [A,,A,]2 [A,,A,]4 | %2
 [E,G,]2 [E,G,]2 [E,G,]>E, E,2 | z z/ D/ z z/ D/ A,>A, A,2 | %4
 B,,>[A,,A,] [A,,A,]>[A,,A,] [A,,A,]>[A,,E,] [A,,F,]>[A,,G,] | [A,,A,]2 [A,,A,]2 [A,,A,]4 | %6
 [E,G,D]>[E,B,E] [E,DE]>[E,B,E] [E,A,E]2 [E,G,D]2 | [A,,A,]6 z2 | %8
 [A,CA]>[A,C] [A,C]>[A,C] [A,C]>[K:bass]A, z z/[K:treble] c/ | %9
 [D,A,]>[D,A,] [D,A,]>[D,A,] [D,A,D]2 z2 | [E,D]>E, [E,G,F]>[E,G,] [E,G,D]2 [E,G,F]>[E,G,] | %11
 [A,,A,]>[A,,A,] [A,,A,]>[A,,A,] [A,,A,]4 | %12
 [A,CA]>[A,C] [A,C]>[A,C] [A,C]>[K:bass]A, z z/[K:treble] c/ | %13
 [D,A,]>[D,A,] [D,A,]>[D,A,] [D,A,D]2 z2 | [E,G,D]>[E,B,E] [E,DE]>[E,B,E] [E,A,E]2 [E,G,D]2 | %15
 [A,,A,]6 z2 |] %16
V:3
 x8 | x8 | [DE]>[DG] [DE]>[DG] z z/ G,/ G,2 | x8 | x8 | x8 | x8 | x8 | %8
 z z/ A/ A>A z z/ c/ [A,_GA]2 | F>F F>F F2 z2 | z z/ D/ z z/ F/ F2 z z/ F/ | x8 | %12
 z z/ A/ A>A z z/ c/ [A,_GA]2 | F>F F>F F2 z2 | x8 | x8 |] %16
V:4
 x8 | x8 | x8 | A,2 A,2 z4 | x8 | x8 | x8 | x8 | z4 z2[K:bass] C,2[K:treble] | x8 | x8 | x8 | %12
 z4 z2[K:bass] C,2[K:treble] | x8 | x8 | x8 |] %16
V:5
 x8 | x8 | x8 | x8 | x8 | x8 | x8 | x8 | z4 E2 z2 | x8 | x8 | x8 | z4 E2 z2 | x8 | x8 | x8 |] %16

